X: 7499
T: Coalyard, The
R: hornpipe
M: 4/4
K: Gmajor
z d|D>G G/G/G B>c d2|b>ga>f g>ed>g|e/f/g d>B c>BA>d|B>dA>F G>FE>G|
D>G G/G/G B>c d2|b>ga>f g>ed>g|e/f/g d>B c>BA>F|D>G F/G/A G2:|
g>a|b>ga>f g>ed>g|e>gd>B c>BA>a|b>ga>f g>ed>B|d>g f/g/a g2
g>a|b>ga>f g>ed>g|e>gd>B c>BA>F|D>G G/G/G B>dg>d|e>cA>F G2:|

